svgs/solid/signal-fair.svg

<svg xmlns="http://www.w3.org/2000/svg" viewBox="0 0 576 512"><!-- Font Awesome Pro 6.0.0-alpha2 by @fontawesome - https://fontawesome.com License - https://fontawesome.com/license (Commercial License) --><path d="M160 288C142.326 288 128 302.326 128 320V480C128 497.672 142.326 512 160 512S192 497.672 192 480V320C192 302.326 177.674 288 160 288ZM32 384C14.326 384 0 398.326 0 416V480C0 497.672 14.326 512 32 512S64 497.672 64 480V416C64 398.326 49.674 384 32 384Z"/></svg>

<svg xmlns="http://www.w3.org/2000/svg" viewBox="0 0 576 512"><!--! Font Awesome Pro 6.3.0 by @fontawesome - https://fontawesome.com License - https://fontawesome.com/license (Commercial License) Copyright 2023 Fonticons, Inc. --><path d="M192 320c0-17.7-14.3-32-32-32s-32 14.3-32 32V480c0 17.7 14.3 32 32 32s32-14.3 32-32V320zM64 416c0-17.7-14.3-32-32-32s-32 14.3-32 32v64c0 17.7 14.3 32 32 32s32-14.3 32-32V416z"/></svg>
